Static/spring-roll-left.svg

<svg width="83" height="114" viewBox="0 0 83 114" fill="none" xmlns="http://www.w3.org/2000/svg">
<path d="M0.715713 111.16C1.3921 107.077 2.27811 103.114 3.32919 99.1069C4.13862 95.5195 4.77066 91.2701 6.53917 87.9579C7.46167 86.1142 10.6693 86.8512 10.5407 89.0144C10.5407 89.0144 10.585 89.1799 10.4198 89.2242C10.8833 89.6322 11.3024 89.875 11.931 90.2384C12.0962 90.1942 12.4709 90.2709 12.6361 90.2266C13.0109 90.3036 13.43 90.5461 13.8492 90.7888C21.4842 83.5986 29.2079 76.7394 35.9603 68.8987C37.9949 66.5795 39.8199 64.1389 41.3911 61.4121C31.5464 58.3733 19.4931 52.3782 18.5164 41.464C17.3136 27.0626 34.0123 30.5709 40.8757 36.3598C49.2501 43.163 50.871 50.5341 47.0402 59.3659C53.5441 61.1711 60.4426 61.8065 66.4667 59.8372C81.037 55.4009 79.9669 41.4961 73.1958 31.425C69.344 34.231 64.5211 36.0555 59.9594 36.2134C51.7513 36.6388 41.6195 26.5812 45.2087 18.1689C48.8422 9.92215 66.1343 18.9481 70.0518 22.3333C71.1882 23.2706 72.3688 24.3734 73.3844 25.5204C73.5053 25.3106 73.6707 25.2663 73.7913 25.0566C83.6461 14.2559 72.6195 4.08653 62.9522 1.70981C61.4532 1.4019 62.4694 0.408977 63.9241 0.551377C73.7 2.012 83.7581 8.7266 80.6047 20.7474C79.7831 23.6285 78.2119 26.3556 75.9678 28.5535C82.0415 36.6828 84.8799 47.2758 78.3934 56.1093C70.6098 66.7098 56.3934 65.1976 45.3923 62.4687C45.2714 62.6782 45.2714 62.6782 45.1506 62.8882C38.5922 74.7571 27.2583 84.0028 17.2905 93.0598C18.427 93.9971 19.6078 95.1001 20.7442 96.0371C21.4617 96.7321 21.6069 97.935 21.1234 98.7738C16.7925 105.079 10.9948 110.535 3.87095 113.685C2.187 114.669 0.377593 113.203 0.715713 111.16ZM45.0243 53.1654C46.9736 45.9021 40.8278 40.8078 35.2907 37.3244C28.0328 32.7056 19.39 36.7954 23.7354 45.7425C26.0127 50.2767 31.3281 52.9326 35.64 55.1477C37.9008 56.3159 40.4917 57.3959 43.2038 58.2657C44.0057 56.6317 44.5977 54.8762 45.0243 53.1654ZM70.5682 28.2266C67.0582 24.3775 62.8668 21.9527 58.0274 20.4111C55.8997 19.7394 53.6511 19.2776 51.3704 19.3565C45.3099 19.2065 50.5132 27.3915 52.2905 29.3988C57.4451 34.7587 65.2419 32.1373 70.5682 28.2266ZM16.2961 97.9385C16.2518 97.773 16.0866 97.8173 16.0422 97.6518C15.5466 97.7846 14.9622 97.5861 14.4545 97.0128C13.6484 95.9871 12.6772 95.0055 11.7058 94.0238C11.2424 93.6158 9.98507 92.8883 10.3155 92.7998C10.1503 92.844 9.94072 92.7228 9.89637 92.5573C9.3929 94.6432 8.55916 96.8182 8.05568 98.9042C7.35492 101.575 6.69851 104.412 6.04216 107.249C9.86201 104.985 13.4156 101.726 16.2961 97.9385Z" fill="#B9D0DF"/>
</svg>

<svg xmlns="http://www.w3.org/2000/svg" width="83" height="114" fill="none"><path fill="#B9D0DF" d="M.716 111.16c.676-4.083 1.562-8.046 2.613-12.053.81-3.588 1.442-7.837 3.21-11.15.923-1.843 4.13-1.106 4.002 1.057 0 0 .044.166-.121.21.463.408.882.651 1.511 1.014.165-.044.54.033.705-.011.375.077.794.32 1.213.562 7.635-7.19 15.359-14.05 22.111-21.89 2.035-2.32 3.86-4.76 5.431-7.487-9.845-3.039-21.898-9.034-22.875-19.948-1.202-14.401 15.496-10.893 22.36-5.104 8.374 6.803 9.995 14.174 6.164 23.006 6.504 1.805 13.403 2.44 19.427.471 14.57-4.436 13.5-18.34 6.729-28.412-3.852 2.806-8.675 4.63-13.237 4.788-8.208.426-18.34-9.632-14.75-18.044 3.633-8.247 20.925.78 24.843 4.164a30.197 30.197 0 0 1 3.332 3.187c.121-.21.287-.254.407-.463C83.646 14.256 72.62 4.087 62.952 1.71c-1.499-.308-.483-1.301.972-1.159 9.776 1.461 19.834 8.176 16.68 20.196a17.774 17.774 0 0 1-4.636 7.806c6.073 8.13 8.912 18.723 2.425 27.556-7.783 10.6-22 9.089-33 6.36l-.242.42c-6.559 11.868-17.893 21.114-27.86 30.17 1.136.938 2.317 2.041 3.453 2.978.718.695.863 1.898.38 2.737-4.331 6.305-10.13 11.761-17.253 14.911-1.684.984-3.493-.482-3.155-2.525Zm44.308-57.995c1.95-7.263-4.196-12.357-9.733-15.84-7.258-4.62-15.901-.53-11.556 8.417 2.278 4.535 7.593 7.19 11.905 9.406a49.86 49.86 0 0 0 7.564 3.118c.802-1.634 1.394-3.39 1.82-5.1Zm25.544-24.938c-3.51-3.85-7.701-6.274-12.54-7.816-2.128-.672-4.377-1.133-6.658-1.055-6.06-.15-.857 8.035.92 10.043 5.155 5.36 12.952 2.738 18.278-1.172ZM16.296 97.939c-.044-.166-.21-.122-.254-.287-.495.133-1.08-.066-1.588-.64-.806-1.025-1.777-2.007-2.748-2.988-.464-.408-1.72-1.136-1.39-1.224a.368.368 0 0 1-.42-.243c-.503 2.086-1.337 4.261-1.84 6.347-.701 2.671-1.357 5.508-2.014 8.345 3.82-2.264 7.374-5.523 10.254-9.31Z"/></svg>
